packages/sources/assets/src/assets/flag-jo.svg

<svg width="28" height="20" viewBox="0 0 28 20" fill="none" xmlns="http://www.w3.org/2000/svg">
<rect x="0.25" y="0.25" width="27.5" height="19.5" rx="1.75" fill="white" stroke="#F5F5F5" stroke-width="0.5"/>
<mask id="mask0_503_2747" style="mask-type:alpha" maskUnits="userSpaceOnUse" x="0" y="0" width="28" height="20">
<rect x="0.25" y="0.25" width="27.5" height="19.5" rx="1.75" fill="white" stroke="white" stroke-width="0.5"/>
</mask>
<g mask="url(#mask0_503_2747)">
<path fill-rule="evenodd" clip-rule="evenodd" d="M0 20H28V13.3333H0V20Z" fill="#199E56"/>
<path fill-rule="evenodd" clip-rule="evenodd" d="M0 6.66667H28V0H0V6.66667Z" fill="#262626"/>
<path fill-rule="evenodd" clip-rule="evenodd" d="M0 0L13.3333 10L0 20V0Z" fill="#E6223A"/>
<path fill-rule="evenodd" clip-rule="evenodd" d="M4.66666 11L3.79889 11.8019L3.88482 10.6235L2.7168 10.445L3.69173 9.77748L3.10299 8.75302L4.23277 9.09903L4.66666 8L5.10054 9.09903L6.23032 8.75302L5.64158 9.77748L6.61651 10.445L5.44849 10.6235L5.53442 11.8019L4.66666 11Z" fill="white"/>
</g>
</svg>

<svg width="28" height="20" fill="none" xmlns="http://www.w3.org/2000/svg"><rect x=".25" y=".25" width="27.5" height="19.5" rx="1.75" fill="#fff" stroke="#F5F5F5" stroke-width=".5"/><mask id="a" style="mask-type:alpha" maskUnits="userSpaceOnUse" x="0" y="0" width="28" height="20"><rect x=".25" y=".25" width="27.5" height="19.5" rx="1.75" fill="#fff" stroke="#fff" stroke-width=".5"/></mask><g mask="url(#a)" fill-rule="evenodd" clip-rule="evenodd"><path d="M0 20h28v-6.667H0V20Z" fill="#199E56"/><path d="M0 6.667h28V0H0v6.667Z" fill="#262626"/><path d="m0 0 13.333 10L0 20V0Z" fill="#E6223A"/><path d="m4.667 11-.868.802.086-1.178-1.168-.179.975-.668-.589-1.024 1.13.346L4.667 8 5.1 9.099l1.13-.346-.59 1.024.976.668-1.169.178.086 1.179L4.667 11Z" fill="#fff"/></g></svg>
